modules/hawcons-stroke/icons/icon-31-award.svg

<?xml version="1.0" encoding="UTF-8" standalone="no"?>
<svg width="32px" height="32px" viewBox="0 0 32 32" version="1.1" xmlns="http://www.w3.org/2000/svg" xmlns:xlink="http://www.w3.org/1999/xlink" xmlns:sketch="http://www.bohemiancoding.com/sketch/ns">
    <!-- Generator: Sketch 3.0.3 (7891) - http://www.bohemiancoding.com/sketch -->
    <title>icon 31 award</title>
    <desc>Created with Sketch.</desc>
    <defs></defs>
    <g id="Page-1" stroke="none" stroke-width="1" fill="none" fill-rule="evenodd" sketch:type="MSPage">
        <g id="icon-31-award" sketch:type="MSArtboardGroup" fill="#929292">
            <path d="M10,16.7083195 L10,31 L16,25 L22,31 L22,16.7083195 C23.8412481,15.0603579 25,12.6654994 25,10 C25,5.02943725 20.9705627,1 16,1 C11.0294373,1 7,5.02943725 7,10 C7,12.6654994 8.15875192,15.0603579 10,16.7083195 L10,16.7083195 L10,16.7083195 Z M11,17.484451 L11,28.5999756 L16,23.5999756 L21,28.5999756 L21,17.484451 C19.569902,18.4417283 17.8501466,19 16,19 C14.1498534,19 12.430098,18.4417283 11,17.484451 L11,17.484451 L11,17.484451 Z M16,18 C20.418278,18 24,14.418278 24,10 C24,5.581722 20.418278,2 16,2 C11.581722,2 8,5.581722 8,10 C8,14.418278 11.581722,18 16,18 L16,18 Z M16,16 C19.3137085,16 22,13.3137085 22,10 C22,6.6862915 19.3137085,4 16,4 C12.6862915,4 10,6.6862915 10,10 C10,13.3137085 12.6862915,16 16,16 L16,16 Z M16,15 C18.7614237,15 21,12.7614237 21,10 C21,7.23857625 18.7614237,5 16,5 C13.2385763,5 11,7.23857625 11,10 C11,12.7614237 13.2385763,15 16,15 L16,15 Z" id="award" sketch:type="MSShapeGroup"></path>
        </g>
    </g>
</svg>

<svg width="32" height="32" xmlns="http://www.w3.org/2000/svg"><path d="M10 16.708V31l6-6 6 6V16.708a9 9 0 1 0-12 0zm1 .776V28.6l5-5 5 5V17.484A8.958 8.958 0 0 1 16 19c-1.85 0-3.57-.558-5-1.516zM16 18a8 8 0 1 0 0-16 8 8 0 0 0 0 16zm0-2a6 6 0 1 0 0-12 6 6 0 0 0 0 12zm0-1a5 5 0 1 0 0-10 5 5 0 0 0 0 10z" fill="#929292" fill-rule="evenodd"/></svg>
